dhis-2/dhis-support/dhis-support-system/src/main/resources/SVGs/malaria_mixed_microscope_negative.svg

<?xml version="1.0" encoding="UTF-8" standalone="no"?>
<!-- Created with Inkscape (http://www.inkscape.org/) -->
<svg id="svg8" xmlns:rdf="http://www.w3.org/1999/02/22-rdf-syntax-ns#" xmlns="http://www.w3.org/2000/svg" xmlns:osb="http://www.openswatchbook.org/uri/2009/osb" height="48" width="48" version="1.1" xmlns:cc="http://creativecommons.org/ns#" viewBox="0 0 12.7 12.7" xmlns:dc="http://purl.org/dc/elements/1.1/">
 <title id="title4753">UIO-icon</title>
 <metadata id="metadata5">
  <rdf:RDF>
   <cc:Work rdf:about="">
    <dc:format>image/svg+xml</dc:format>
    <dc:type rdf:resource="http://purl.org/dc/dcmitype/StillImage"/>
    <dc:title>UIO-icon</dc:title>
    <dc:creator>
     <cc:Agent>
      <dc:title>Joaquín Urbano</dc:title>
     </cc:Agent>
    </dc:creator>
    <dc:rights>
     <cc:Agent>
      <dc:title>GPL</dc:title>
     </cc:Agent>
    </dc:rights>
   </cc:Work>
  </rdf:RDF>
 </metadata>
 <g id="layer1" fill="#333" transform="translate(0,-284.3)">
  <path id="rect1086" d="m24 4.5176c-10.76 0-19.482 8.7224-19.482 19.482-0.0004 10.76 8.722 19.482 19.482 19.482s19.482-8.722 19.482-19.482-8.722-19.482-19.482-19.482zm5.2969 4.3613c1.9622-0.084785 4.4333 2.4473 5.8535 5.998 1.6108 4.0288 1.3109 7.937-0.66992 8.7305-1.9815 0.79512-4.8955-1.8286-6.5078-5.8594-1.6111-4.0299-1.3103-7.9387 0.67188-8.7305 0.204-0.0815 0.422-0.1279 0.652-0.1381zm-10.273 0.74219c0.62687-0.028671 1.1595 0.12076 1.5664 0.43945 1.6819 1.3142 0.8783 5.1512-1.7949 8.5703-2.6736 3.4184-6.2036 5.1235-7.8848 3.8086-1.6819-1.3142-0.8783-5.1512 1.7949-8.5703 1.9454-2.4877 4.4341-4.161 6.3184-4.248zm11.023 1.7754c-0.041677-0.00083793-0.08337-0.00018635-0.125 0.001953-0.96554 0.050453-1.7072 0.87433-1.6562 1.8398 0.05149 0.96476 0.87506 1.7053 1.8398 1.6543 0.96473-0.050468 1.7061-0.87312 1.6562-1.8379-0.048-0.916-0.797-1.64-1.715-1.658zm-12.258 0.299c-0.27559 0.013984-0.54396 0.092973-0.7832 0.23047-0.83876 0.48049-1.1291 1.55-0.64844 2.3887 0.48116 0.83805 1.5505 1.1275 2.3887 0.64648 0.83876-0.48049 1.1291-1.55 0.64844-2.3887-0.327-0.571-0.947-0.91-1.605-0.877zm12.16 0.2207c0.67839-0.035301 1.2571 0.4857 1.293 1.1641 0.036425 0.67913-0.4849 1.2591-1.1641 1.2949-0.67839 0.035301-1.2571-0.4857-1.293-1.1641-0.036426-0.67913 0.4849-1.2591 1.1641-1.2949zm-12.1 0.29688c0.45002-0.009751 0.86946 0.22692 1.0938 0.61719 0.33806 0.58951 0.13434 1.3415-0.45508 1.6797-0.58951 0.33806-1.3415 0.13434-1.6797-0.45508-0.33806-0.58951-0.13434-1.3415 0.45508-1.6797 0.17868-0.10219 0.38014-0.15792 0.58594-0.16211zm-3.8613 3.4219c-0.40396 0.019767-0.7975 0.1349-1.1484 0.33594-1.2276 0.70435-1.6517 2.2705-0.94727 3.498 0.70435 1.2276 2.2705 1.6517 3.498 0.94727 1.2276-0.70435 1.6517-2.2705 0.94727-3.498-0.47974-0.83538-1.3875-1.3311-2.3496-1.2832zm18.615 0.44727c-0.060574-0.00085002-0.12116 0.00046222-0.18164 0.003906-1.4138 0.073584-2.5 1.2796-2.4258 2.6934 0.074623 1.413 1.2804 2.4981 2.6934 2.4238 1.4138-0.073584 2.5-1.2796 2.4258-2.6934-0.070496-1.343-1.1671-2.4029-2.5117-2.4277zm-18.529 0.080078c0.7424-0.014438 1.4336 0.3772 1.8027 1.0215 0.55674 0.97309 0.22027 2.2132-0.75195 2.7715-0.97309 0.55674-2.2132 0.22027-2.7715-0.75195-0.55674-0.97309-0.22027-2.2132 0.75195-2.7715 0.29524-0.16958 0.62835-0.26226 0.96875-0.26953zm18.578 0.45312c1.0423 0.050204 1.8772 0.88171 1.9316 1.9238 0.058192 1.12-0.80194 2.0754-1.9219 2.1348-1.12 0.058193-2.0754-0.80194-2.1348-1.9219-0.058192-1.12 0.80194-2.0754 1.9219-2.1348 0.067633-0.004044 0.13543-0.004686 0.20312-0.001953zm-6.761 8.541c1.8206 0.018477 4.1955 1.0259 6.3027 2.6738 3.4184 2.6736 5.1235 6.2036 3.8086 7.8848-1.3142 1.6819-5.1512 0.8783-8.5703-1.7949-3.4184-2.6736-5.1235-6.2036-3.8086-7.8848 0.45572-0.58389 1.2428-0.88896 2.2676-0.87891zm-11.594 0.72266c1.9622-0.084785 4.4333 2.4473 5.8535 5.998 1.6108 4.0288 1.3109 7.937-0.66992 8.7305-1.9815 0.79513-4.8955-1.8286-6.5078-5.8594-1.6111-4.0299-1.3103-7.9387 0.67188-8.7305 0.20439-0.082088 0.42263-0.12847 0.65234-0.13867zm13.453 0.816c-0.49038-0.018482-0.97576 0.10421-1.3984 0.35352-1.2184 0.72002-1.6224 2.2914-0.90234 3.5098 0.72002 1.2184 2.2914 1.6224 3.5098 0.90234 1.2184-0.72002 1.6224-2.2914 0.90234-3.5098-0.444-0.75-1.239-1.224-2.111-1.256zm-0.16211 0.53125c0.74196-0.02468 1.4383 0.35721 1.8164 0.99609 0.56934 0.96606 0.24856 2.2107-0.7168 2.7812-0.96555 0.56967-2.2101 0.24981-2.7812-0.71484-0.571-0.96598-0.25099-2.2119 0.71484-2.7832 0.29375-0.17268 0.62621-0.26872 0.9668-0.2793zm-12.359 1.274c-0.9665 0-1.75 0.7835-1.75 1.75-1.3e-7 0.9665 0.7835 1.75 1.75 1.75s1.75-0.7835 1.75-1.75c-6e-8 -0.9665-0.7835-1.75-1.75-1.75zm0 0.51953c0.67951 0.00013795 1.2303 0.55096 1.2305 1.2305-0.00013771 0.67951-0.55096 1.2303-1.2305 1.2305-0.68-0.001-1.231-0.551-1.231-1.231 0.0001379-0.67951 0.55096-1.2303 1.2305-1.2305zm17.289 2.1855c-0.33498-0.012397-0.66649 0.071651-0.95508 0.24219-0.83143 0.49205-1.1068 1.5648-0.61523 2.3965 0.49139 0.83214 1.5643 1.1084 2.3965 0.61719 0.83143-0.49205 1.1068-1.5648 0.61523-2.3965-0.30283-0.51317-0.84597-0.83699-1.4414-0.85938zm-0.10547 0.51953c0.44924-0.01474 0.87078 0.21664 1.0996 0.60352 0.34569 0.58519 0.15157 1.3398-0.43359 1.6855-0.58476 0.34436-1.3379 0.15039-1.6836-0.43359-0.34569-0.58519-0.15157-1.3398 0.43359-1.6855 0.17738-0.10461 0.37817-0.16303 0.58398-0.16992zm-14.934 1.586c-1.4152 0-2.5625 1.1473-2.5625 2.5625-1e-8 1.4152 1.1473 2.5625 2.5625 2.5625s2.5625-1.1473 2.5625-2.5625c3e-8 -1.4152-1.1473-2.5625-2.5625-2.5625zm0 0.53125c1.1216 0.00050759 2.0307 0.90963 2.0312 2.0312-0.00050761 1.1216-0.90963 2.0307-2.0312 2.0312-1.1216-0.00050759-2.0307-0.90963-2.0312-2.0312 0.00050763-1.1216 0.90963-2.0307 2.0312-2.0312z" fill-rule="evenodd" transform="matrix(.26458 0 0 .26458 0 284.3)"/>
 </g>
</svg>

<svg width="48" height="48" viewBox="0 0 48 48" fill="none" xmlns="http://www.w3.org/2000/svg">
<path fill-rule="evenodd" clip-rule="evenodd" d="M23.9996 4.51758C13.2397 4.51758 4.51782 13.2399 4.51782 23.9993C4.51742 34.7592 13.2397 43.4811 23.9996 43.4811C34.7594 43.4811 43.4813 34.7592 43.4813 23.9993C43.4813 13.2395 34.7594 4.51758 23.9996 4.51758ZM29.2964 8.87882C31.2586 8.79404 33.7297 11.3261 35.1498 14.8767C36.7606 18.9055 36.4607 22.8137 34.4799 23.6071C32.4985 24.4023 29.5845 21.7786 27.9722 17.7478C26.3611 13.718 26.6619 9.80921 28.6441 9.01742C28.8481 8.93592 29.0661 8.88952 29.2961 8.87932L29.2964 8.87882ZM19.0235 9.621C19.6504 9.59233 20.183 9.74176 20.5899 10.0604C22.2718 11.3746 21.4682 15.2116 18.795 18.6306C16.1215 22.049 12.5915 23.7541 10.9103 22.4392C9.22846 21.125 10.0321 17.2881 12.7052 13.869C14.6506 11.3813 17.1393 9.70805 19.0235 9.62105V9.621ZM30.0464 11.3964C30.0047 11.3955 29.963 11.3962 29.9214 11.3983C28.9559 11.4488 28.2142 12.2727 28.2652 13.2381C28.3167 14.2029 29.1403 14.9434 30.105 14.8924C31.0697 14.8419 31.8111 14.0193 31.7612 13.0545C31.7132 12.1385 30.9642 11.4145 30.0462 11.3965L30.0464 11.3964ZM17.7886 11.6954C17.513 11.7094 17.2446 11.7883 17.0054 11.9258C16.1666 12.4063 15.8763 13.4758 16.3569 14.3145C16.8381 15.1526 17.9074 15.442 18.7456 14.961C19.5844 14.4805 19.8747 13.411 19.394 12.5723C19.067 12.0013 18.447 11.6623 17.7891 11.6953L17.7886 11.6954ZM29.9484 11.9161C30.6268 11.8808 31.2055 12.4018 31.2414 13.0802C31.2778 13.7593 30.7565 14.3392 30.0773 14.375C29.3989 14.4103 28.8202 13.8894 28.7843 13.211C28.7479 12.5318 29.2692 11.9519 29.9484 11.9161ZM17.8486 12.213C18.2986 12.2032 18.718 12.4399 18.9423 12.8301C19.2804 13.4196 19.0767 14.1716 18.4873 14.5098C17.8978 14.8479 17.1458 14.6442 16.8076 14.0547C16.4695 13.4652 16.6733 12.7133 17.2627 12.3751C17.4413 12.2729 17.6428 12.2171 17.8486 12.213ZM13.9873 15.6348C13.5833 15.6546 13.1898 15.7697 12.8389 15.9707C11.6113 16.6751 11.1872 18.2412 11.8917 19.4687C12.596 20.6963 14.1621 21.1204 15.3896 20.416C16.6172 19.7116 17.0413 18.1455 16.3369 16.918C15.8571 16.0826 14.9494 15.5869 13.9873 15.6348ZM32.6021 16.0821C32.5415 16.0812 32.4809 16.0825 32.4204 16.086C31.0067 16.1596 29.9205 17.3656 29.9947 18.7793C30.0693 20.1923 31.275 21.2774 32.688 21.2031C34.1018 21.1295 35.188 19.9235 35.1138 18.5097C35.0433 17.1668 33.9467 16.1069 32.6021 16.0821ZM14.0733 16.1621C14.8157 16.1477 15.5069 16.5393 15.876 17.1836C16.4327 18.1567 16.0962 19.3968 15.124 19.9551C14.151 20.5118 12.9109 20.1754 12.3526 19.2032C11.7958 18.2301 12.1323 16.99 13.1045 16.4317C13.3998 16.2621 13.7329 16.1694 14.0733 16.1622V16.1621ZM32.6511 16.6153C33.6934 16.6655 34.5282 17.497 34.5826 18.539C34.6408 19.659 33.7807 20.6144 32.6608 20.6738C31.5408 20.732 30.5854 19.8719 30.526 18.7519C30.4678 17.632 31.3279 16.6766 32.4479 16.6172C32.5155 16.6131 32.5833 16.6125 32.651 16.6152L32.6511 16.6153ZM25.8902 25.1562C27.7107 25.1746 30.0856 26.182 32.1928 27.8299C35.6111 30.5035 37.3162 34.0334 36.0013 35.7146C34.6871 37.3965 30.8502 36.5929 27.4311 33.9197C24.0128 31.2462 22.3077 27.7162 23.6226 26.035C24.0783 25.4512 24.8654 25.1461 25.8902 25.1561V25.1562ZM14.2963 25.8788C16.2585 25.794 18.7295 28.3261 20.1497 31.8767C21.7605 35.9055 21.4606 39.8136 19.4798 40.6071C17.4983 41.4022 14.5844 38.7785 12.9721 34.7478C11.361 30.7179 11.6618 26.8092 13.644 26.0174C13.8484 25.9353 14.0666 25.8889 14.2963 25.8787V25.8788ZM27.7491 26.6948C27.2588 26.6763 26.7734 26.799 26.3507 27.0483C25.1324 27.7683 24.7284 29.3397 25.4484 30.5581C26.1684 31.7765 27.7398 32.1804 28.9582 31.4604C30.1766 30.7404 30.5806 29.169 29.8605 27.9506C29.4165 27.2007 28.6215 26.7267 27.7495 26.6947L27.7491 26.6948ZM27.587 27.226C28.329 27.2014 29.0253 27.5832 29.4034 28.2221C29.9727 29.1882 29.652 30.4328 28.6866 31.0033C27.7211 31.5729 26.4765 31.2531 25.9054 30.2885C25.3345 29.3225 25.6545 28.0766 26.6203 27.5053C26.914 27.3326 27.2465 27.2366 27.5871 27.226H27.587ZM15.2282 28.5C14.2617 28.5 13.4782 29.2835 13.4782 30.25C13.4782 31.2165 14.2617 32 15.2282 32C16.1947 32 16.9782 31.2165 16.9782 30.25C16.9782 29.2835 16.1947 28.5 15.2282 28.5ZM15.2282 29.0195C15.9077 29.0197 16.4585 29.5705 16.4587 30.25C16.4585 30.9295 15.9077 31.4803 15.2282 31.4805C14.5482 31.4795 13.9972 30.9295 13.9972 30.2495C13.9973 29.57 14.5481 29.0192 15.2277 29.019L15.2282 29.0195ZM32.517 31.205C32.182 31.1926 31.8505 31.2767 31.5619 31.4472C30.7305 31.9393 30.4551 33.012 30.9467 33.8437C31.4381 34.6758 32.511 34.9521 33.3431 34.4609C34.1746 33.9688 34.4499 32.8961 33.9584 32.0644C33.6555 31.5512 33.1124 31.2274 32.517 31.205ZM32.4115 31.7245C32.8607 31.7098 33.2823 31.9412 33.5111 32.3281C33.8568 32.9132 33.6626 33.6678 33.0775 34.0135C32.4927 34.3579 31.7396 34.1639 31.3939 33.5799C31.0482 32.9948 31.2423 32.2402 31.8275 31.8945C32.0049 31.7899 32.2057 31.7314 32.4115 31.7246V31.7245ZM17.4777 33.3105C16.0625 33.3105 14.9152 34.4578 14.9152 35.873C14.9152 37.2882 16.0625 38.4355 17.4777 38.4355C18.8929 38.4355 20.0401 37.2882 20.0401 35.873C20.0401 34.4578 18.8929 33.3105 17.4777 33.3105ZM17.4777 33.8418C18.5993 33.8423 19.5084 34.7514 19.5089 35.8729C19.5083 36.9945 18.5992 37.9036 17.4777 37.9041C16.3561 37.9036 15.447 36.9945 15.4465 35.8729C15.447 34.7514 16.3561 33.8423 17.4777 33.8418Z" fill="#333333"/>
</svg>
